packages/ffe-icons/icons/open/300/md/devices.svg

<svg xmlns="http://www.w3.org/2000/svg" height="24" viewBox="0 -960 960 960" width="24"><path d="M145-180.001q-18.749 0-31.874-13.145-13.125-13.144-13.125-31.922t13.125-31.855q13.125-13.076 31.874-13.076h35.001v-437.692q0-29.827 21.241-51.067 21.24-21.241 51.067-21.241h537.69q12.75 0 21.375 8.629t8.625 21.384q0 12.756-8.625 21.371Q802.749-720 789.999-720h-537.69q-5.385 0-8.847 3.462-3.462 3.462-3.462 8.847v437.692h184.616q18.749 0 31.874 13.144 13.125 13.145 13.125 31.923 0 18.777-13.125 31.854-13.125 13.077-31.874 13.077H145Zm456.154 0q-15.365 0-25.759-10.395Q565-200.79 565-216.155v-379.999q0-15.365 10.395-25.759 10.394-10.394 25.759-10.394H824.23q15.365 0 25.759 10.394t10.394 25.759v379.999q0 15.365-10.394 25.759-10.394 10.395-25.759 10.395H601.154Zm23.845-89.998h175.386v-302.31H624.999v302.31Zm0 0h175.386-175.386Z"/></svg>

<svg xmlns="http://www.w3.org/2000/svg" height="24" viewBox="0 -960 960 960" width="24"><path d="M145-180q-18.75 0-31.87-13.15Q100-206.29 100-225.07t13.13-31.85Q126.25-270 145-270h35v-437.69q0-29.83 21.24-51.07Q222.48-780 252.31-780H790q12.75 0 21.37 8.63 8.63 8.63 8.63 21.38 0 12.76-8.63 21.37Q802.75-720 790-720H252.31q-5.39 0-8.85 3.46t-3.46 8.85V-270h184.62q18.75 0 31.87 13.15 13.12 13.14 13.12 31.92t-13.12 31.85Q443.37-180 424.62-180H145Zm456.15 0q-15.36 0-25.76-10.4Q565-200.79 565-216.16v-379.99q0-15.37 10.39-25.76 10.4-10.4 25.76-10.4h223.08q15.36 0 25.76 10.4 10.39 10.39 10.39 25.76v379.99q0 15.37-10.39 25.76-10.4 10.4-25.76 10.4H601.15ZM625-270h175.38v-302.31H625V-270Zm0 0h175.38H625Z"/></svg>
